test-tube-off.svg

<svg fill="currentColor" viewBox="0 0 24 24"><path d="M2 5.27 3.28 4 20 20.72 18.73 22l-2.89-2.89A4.01 4.01 0 0 1 12 22a4 4 0 0 1-4-4v-6.73zM7 2h10v2h-1v10.18l-2.37-2.37c.23-.18.37-.46.37-.81 0-.6-.4-1-1-1-.35 0-.63.14-.81.37L8 6.18V4H7zm4 14c.5 0 .88-.29 1-.76L10.76 14c-.47.12-.76.5-.76 1 0 .6.4 1 1 1m3-9V4h-4v3z"/></svg>

<svg  viewBox="0 0 24 24" fill="currentColor"><path  d="M2,5.27L3.28,4L20,20.72L18.73,22L15.84,19.11C15.36,20.77 13.82,22 12,22A4,4 0 0,1 8,18V11.27L2,5.27M7,2H17V4H16V14.18L13.63,11.81C13.86,11.63 14,11.35 14,11C14,10.4 13.6,10 13,10C12.65,10 12.37,10.14 12.19,10.37L8,6.18V4H7V2M11,16C11.5,16 11.88,15.71 12,15.24L10.76,14C10.29,14.12 10,14.5 10,15C10,15.6 10.4,16 11,16M14,7V4H10V7H14Z"/></svg>
